FINK
CUT[EIN MAEDCHEN VON ACHTZEHN JAHREN]
REG[Europa, Mitteleuropa, Deutschland]
KEY[F0864  08  G 4/4]
MEL[-5_  1_333_5_  3_5_3_
    5_  5_.44_3_  2__0_
    3_  4_6_4_2_  3_5_3_
    1_  2_442_-7_  6_5_5_
    3_  4_6_4_2_  3_5_3_
    1_  2_225_5_  1__0_ //] >>
FCT[erzaehlendes Volks - Lied, Ballade]
